svg/script_text_play_outline.svg

<svg xmlns="http://www.w3.org/2000/svg" viewBox="0 0 24 24"><path d="M9 14h5v1.7c-.1.1-.1.2-.2.3H9zm0-2h5v-2H9zm0-4h5V6H9zM7 5c0-.6.4-1 1-1h8v9.8c.6-.4 1.3-.6 2-.7V5c0-.6.4-1 1-1s1 .4 1 1v1h2V5c0-1.7-1.3-3-3-3H8C6.3 2 5 3.3 5 5v11h2zm6 14v-1H2v1c0 1.7 1.3 3 3 3h8.8c-.5-.9-.8-1.9-.8-3m4-3v6l5-3z"/></svg>

<svg xmlns="http://www.w3.org/2000/svg" id="mdi-script-text-play-outline" viewBox="0 0 24 24"><path d="M9 14H14V15.7C13.9 15.8 13.9 15.9 13.8 16H9V14M9 12H14V10H9V12M9 8H14V6H9V8M7 5C7 4.4 7.4 4 8 4H16V13.8C16.6 13.4 17.3 13.2 18 13.1V5C18 4.4 18.4 4 19 4S20 4.4 20 5V6H22V5C22 3.3 20.7 2 19 2H8C6.3 2 5 3.3 5 5V16H7V5M13 19V18.4 18H2V19C2 20.7 3.3 22 5 22H13.8C13.3 21.1 13 20.1 13 19M17 16V22L22 19L17 16Z" /></svg>
